assets/img/cat-icon.svg

<svg width="166" height="166" viewBox="0 0 166 166" fill="none" xmlns="http://www.w3.org/2000/svg">
<rect x="0.337402" width="165.337" height="165.337" rx="19.4018" fill="#FADCD5"/>
<path d="M63.0036 145.539C62.6257 145.539 62.3355 145.431 62.133 145.215C61.9306 144.999 61.8294 144.702 61.8294 144.325V132.157C61.8294 131.766 61.9373 131.469 62.1533 131.266C62.3692 131.05 62.6662 130.942 63.0441 130.942C63.3815 130.942 63.6447 131.01 63.8337 131.145C64.0361 131.266 64.2183 131.482 64.3803 131.793L69.3809 141.045H68.733L73.7337 131.793C73.8956 131.482 74.0711 131.266 74.26 131.145C74.449 131.01 74.7122 130.942 75.0496 130.942C75.4275 130.942 75.7177 131.05 75.9202 131.266C76.1226 131.469 76.2238 131.766 76.2238 132.157V144.325C76.2238 144.702 76.1226 144.999 75.9202 145.215C75.7312 145.431 75.441 145.539 75.0496 145.539C74.6717 145.539 74.3815 145.431 74.1791 145.215C73.9766 144.999 73.8754 144.702 73.8754 144.325V134.951H74.3208L70.0692 142.705C69.9343 142.934 69.7926 143.103 69.6441 143.211C69.4956 143.319 69.2932 143.373 69.0367 143.373C68.7803 143.373 68.5711 143.319 68.4091 143.211C68.2472 143.09 68.1054 142.921 67.984 142.705L63.6919 134.931H64.1778V144.325C64.1778 144.702 64.0766 144.999 63.8742 145.215C63.6852 145.431 63.395 145.539 63.0036 145.539ZM84.0014 145.58C82.8812 145.58 81.9161 145.371 81.1063 144.952C80.2965 144.534 79.6689 143.94 79.2235 143.171C78.7916 142.401 78.5756 141.49 78.5756 140.437C78.5756 139.412 78.7848 138.514 79.2032 137.745C79.6351 136.975 80.2223 136.375 80.9646 135.943C81.7204 135.498 82.5775 135.275 83.5358 135.275C84.2376 135.275 84.8652 135.39 85.4186 135.619C85.9855 135.848 86.4646 136.179 86.856 136.611C87.2609 137.043 87.5646 137.569 87.767 138.19C87.983 138.798 88.091 139.486 88.091 140.255C88.091 140.498 88.0032 140.687 87.8278 140.822C87.6658 140.944 87.4296 141.004 87.1192 141.004H80.6204V139.547H86.3094L85.9855 139.85C85.9855 139.229 85.891 138.71 85.702 138.291C85.5266 137.873 85.2634 137.556 84.9124 137.34C84.575 137.11 84.1499 136.996 83.637 136.996C83.0701 136.996 82.5842 137.131 82.1793 137.401C81.7879 137.657 81.4842 138.028 81.2683 138.514C81.0658 138.987 80.9646 139.553 80.9646 140.215V140.356C80.9646 141.463 81.221 142.293 81.7339 142.847C82.2603 143.387 83.0296 143.656 84.0419 143.656C84.3928 143.656 84.7842 143.616 85.2161 143.535C85.6615 143.441 86.0799 143.285 86.4713 143.069C86.7548 142.907 87.0045 142.84 87.2204 142.867C87.4364 142.88 87.6051 142.955 87.7266 143.09C87.8615 143.225 87.9425 143.393 87.9695 143.596C87.9965 143.785 87.956 143.98 87.848 144.183C87.7535 144.385 87.5848 144.561 87.3419 144.709C86.8695 145.006 86.3229 145.229 85.702 145.377C85.0947 145.512 84.5278 145.58 84.0014 145.58ZM82.6247 134.04L80.6609 131.206C80.5124 130.976 80.4517 130.76 80.4787 130.558C80.5192 130.355 80.6137 130.18 80.7621 130.031C80.9241 129.883 81.1063 129.782 81.3088 129.728C81.5247 129.674 81.7339 129.687 81.9364 129.768C82.1523 129.836 82.321 129.998 82.4425 130.254L83.9609 133.271C84.0689 133.487 84.0891 133.682 84.0216 133.858C83.9542 134.033 83.8327 134.168 83.6572 134.263C83.4818 134.357 83.2996 134.391 83.1106 134.364C82.9216 134.337 82.7597 134.229 82.6247 134.04ZM94.6098 145.58C93.5841 145.58 92.6933 145.371 91.9374 144.952C91.1816 144.534 90.5945 143.94 90.1761 143.171C89.7577 142.388 89.5485 141.47 89.5485 140.417C89.5485 139.621 89.6632 138.912 89.8927 138.291C90.1356 137.657 90.4798 137.117 90.9252 136.672C91.3706 136.213 91.9037 135.869 92.5246 135.639C93.1454 135.396 93.8405 135.275 94.6098 135.275C95.6356 135.275 96.5264 135.484 97.2822 135.902C98.0381 136.321 98.6252 136.915 99.0436 137.684C99.462 138.453 99.6712 139.364 99.6712 140.417C99.6712 141.214 99.5497 141.929 99.3068 142.563C99.0773 143.198 98.7399 143.744 98.2945 144.203C97.8491 144.648 97.316 144.993 96.6951 145.236C96.0742 145.465 95.3792 145.58 94.6098 145.58ZM94.6098 143.656C95.1092 143.656 95.5479 143.535 95.9258 143.292C96.3037 143.049 96.5939 142.691 96.7963 142.219C97.0123 141.733 97.1203 141.133 97.1203 140.417C97.1203 139.337 96.8908 138.534 96.4319 138.008C95.973 137.468 95.3657 137.198 94.6098 137.198C94.1104 137.198 93.6718 137.32 93.2939 137.563C92.916 137.792 92.619 138.15 92.4031 138.636C92.2006 139.108 92.0994 139.702 92.0994 140.417C92.0994 141.483 92.3288 142.293 92.7877 142.847C93.2466 143.387 93.854 143.656 94.6098 143.656Z" fill="#363344"/>
<path d="M116.498 36V77.7561C116.498 86.6157 112.979 95.1123 106.714 101.377C100.45 107.642 91.9529 111.161 83.0934 111.161C74.2339 111.161 65.7372 107.642 59.4725 101.377C53.2079 95.1123 49.6885 86.6157 49.6885 77.7561V36L64.0192 50.3307C69.6131 46.4276 76.2724 44.34 83.0934 44.3512C90.48 44.3512 97.303 46.748 102.836 50.8067L116.498 36Z" stroke="#E74F2C" stroke-width="5.90491" stroke-linecap="round" stroke-linejoin="round"/>
<path d="M41.3374 90.283H62.2155L45.513 106.985M124.85 90.283H103.972L120.674 106.985M70.5667 69.405V69.4467M95.6204 69.405V69.4467M78.9179 90.283C78.9179 91.3905 79.3579 92.4526 80.1409 93.2356C80.924 94.0187 81.9861 94.4586 83.0935 94.4586C84.201 94.4586 85.2631 94.0187 86.0461 93.2356C86.8292 92.4526 87.2691 91.3905 87.2691 90.283C87.2691 89.1756 86.8292 88.1135 86.0461 87.3304C85.2631 86.5474 84.201 86.1074 83.0935 86.1074C81.9861 86.1074 80.924 86.5474 80.1409 87.3304C79.3579 88.1135 78.9179 89.1756 78.9179 90.283Z" stroke="#E74F2C" stroke-width="5.90491" stroke-linecap="round" stroke-linejoin="round"/>
</svg>

<svg xmlns="http://www.w3.org/2000/svg" width="166" height="166" fill="none"><rect width="165.337" height="165.337" x=".337" fill="#FADCD5" rx="19.402"/><path fill="#363344" d="M63.004 145.539q-.567 0-.871-.324t-.304-.89v-12.168q0-.586.324-.891.324-.324.891-.324.506 0 .79.203.303.181.546.648l5 9.252h-.647l5-9.252q.244-.466.527-.648.283-.203.79-.203.566 0 .87.324.304.304.304.891v12.168q0 .566-.304.89-.283.324-.87.324-.567 0-.87-.324-.305-.324-.305-.89v-9.374h.446l-4.252 7.754q-.202.344-.425.506t-.607.162-.628-.162a1.6 1.6 0 0 1-.425-.506l-4.292-7.774h.486v9.394q0 .566-.304.89-.283.324-.87.324M84 145.58q-1.68 0-2.895-.628a4.53 4.53 0 0 1-1.882-1.781q-.648-1.155-.648-2.734 0-1.538.627-2.692a4.7 4.7 0 0 1 1.762-1.802q1.133-.668 2.57-.668 1.054 0 1.884.344a3.86 3.86 0 0 1 1.437.992q.608.648.911 1.579.324.912.324 2.065a.68.68 0 0 1-.263.567q-.243.183-.709.182H80.62v-1.457h5.69l-.325.303q0-.931-.283-1.559a1.98 1.98 0 0 0-.79-.951q-.505-.344-1.275-.344-.85 0-1.458.405-.587.384-.91 1.113-.304.709-.304 1.701v.141q0 1.66.769 2.491.79.81 2.308.809.525 0 1.174-.121.669-.141 1.255-.466.425-.243.75-.202a.7.7 0 0 1 .506.223.85.85 0 0 1 .242.506.95.95 0 0 1-.121.587q-.141.303-.506.526a5.4 5.4 0 0 1-1.64.668 8 8 0 0 1-1.7.203m-1.376-11.54-1.964-2.834q-.224-.345-.182-.648.06-.304.283-.527.243-.222.547-.303a1 1 0 0 1 .627.04q.324.102.506.486l1.519 3.017q.162.324.06.587a.76.76 0 0 1-.364.405.87.87 0 0 1-.546.101q-.284-.04-.486-.324m11.985 11.54q-1.539 0-2.673-.628a4.4 4.4 0 0 1-1.76-1.781q-.63-1.175-.629-2.754 0-1.194.345-2.126a4.6 4.6 0 0 1 1.032-1.619 4.26 4.26 0 0 1 1.6-1.033q.93-.364 2.085-.364 1.538 0 2.672.627a4.4 4.4 0 0 1 1.762 1.782q.627 1.154.627 2.733 0 1.195-.364 2.146a4.5 4.5 0 0 1-1.013 1.64 4.6 4.6 0 0 1-1.599 1.033q-.93.344-2.085.344m0-1.924q.75 0 1.316-.364.567-.365.87-1.073.324-.728.324-1.802 0-1.62-.688-2.409-.688-.81-1.822-.81-.75 0-1.316.365-.567.344-.89 1.073-.305.708-.305 1.781 0 1.599.689 2.43.688.81 1.822.809"/><path stroke="#E74F2C" stroke-linecap="round" stroke-linejoin="round" stroke-width="5.905" d="M116.498 36v41.756a33.403 33.403 0 0 1-57.026 23.621 33.4 33.4 0 0 1-9.784-23.62V36L64.02 50.33a33.24 33.24 0 0 1 19.074-5.979c7.387 0 14.21 2.397 19.743 6.456z"/><path stroke="#E74F2C" stroke-linecap="round" stroke-linejoin="round" stroke-width="5.905" d="M41.337 90.283h20.878l-16.702 16.702m79.337-16.702h-20.878l16.702 16.702m-50.107-37.58v.042m25.053-.042v.042M78.918 90.283a4.176 4.176 0 1 0 8.351 0 4.176 4.176 0 0 0-8.351 0"/></svg>
